X:3
T:Finnskogspols
Z:taught by Dag Stian Baltzersen, at Pinewoods FAC, 2008
M:3/4
L:1/8
K:Dmi
af
|: dd ^cA cd | ee {e}fa gb
| ~a~f ed ~^c2 | (dA) FD af
| dd ^cA cd | ee fa gb
| ~a~f ed ~^c2 |[1 {c}d4 af :|[2 {c}d4 ua2 |
|: ((3fga) ((3fga) (3f(ga) | b2 ([B2b2] ~g2)
| ((3efg) ((3efg) (3e(fg) | [A4a4] (af)
| dd ^cA cd | ee {e}fa gb
| ~a~f ed ~^c2 |[1 {c}d4 ua2 :|[2 {c}d4 z2 |
